!!!COM: Bach, Johann Sebastian
!!!CDT: 1685/3//-1750/7/28/
!!!OTL@@DE: Ich dank' dir, lieber Herre
!!!AGN: 4-Part Chorale
!!!SCT: Erk 272
!!!SCT: BWV 348
!!!YEC: Copyright 1994, David Huron
!!!YEC: Changes/Additions 2001 by Craig Stuart Sapp
!!!YEN: United States of America
!!!SMA: 371 Bach Chorales, edited by Ludwig Erk, C.F. Peters
!!!PDT: 1850, 1865
!!!ONB: Harmony and Root analysis done manually
**kern	**kern	**kern	**kern	**root	**harm	**kern
!bass	!tenor	!alto	!soprno	!	!	!
*Iorgan	*Iorgan	*Iorgan	*Iorgan	*Iorgan	*	*Iorgan
*M4/4	*M4/4	*M4/4	*M4/4	*M4/4	*M4/4	*M4/4
*met(C)	*met(C)	*met(C)	*met(C)	*met(C)	*met(C)	*met(C)
*MM60	*MM60	*MM60	*MM60	*MM60	*MM60	*MM60
*k[b-e-]	*k[b-e-]	*k[b-e-]	*k[b-e-]	*k[b-e-]	*k[b-e-]	*k[b-e-]
*B-:	*B-:	*B-:	*B-:	*B-:	*B-:	*B-:
*>[A,B,B1,B,B2]	*>[A,B,B1,B,B2]	*>[A,B,B1,B,B2]	*>[A,B,B1,B,B2]	*>[A,B,B1,B,B2]	*>[A,B,B1,B,B2]	*>[A,B,B1,B,B2]
*>A	*>A	*>A	*>A	*>A	*>A	*>A
8B-	4d	4f	4b-	4BB-	I	4B- 4dd 4ff
8A	.	.	.	.	.	.
=1	=1	=1	=1	=1	=1	=1
4G	8d	4g	4b-	4GG	vi	4G 4b- 4dd
.	8e-	.	.	.	.	.
4D	4f	4a-	4b-	4BB-	V7b/IV	4b- 4D 4ff 4aa-
=!|:	=!|:	=!|:	=!|:	=!|:	=!|:	=!|:
*>B	*>B	*>B	*>B	*>B	*>B	*>B
4E-	8e-	4g	4b-	4EE-	IV	4E- 4g 4b-
.	8d	.	.	.	.	.
4En	4c	4g	4cc	4CC	Vb/V	4c 4E 4g
=2	=2	=2	=2	=2	=2	=2
4F	4c	8g	4a-	4FF	v	4F 4a- 4cc
.	.	4f	.	.	.	.
4C	4B-	.	4g	4CC	V7/V	4C 4e 4g 4b-
.	.	8en	.	.	.	.
4FF;	4A;	4f;	4f;	4FF;	V;	4F; 4a; 4cc;
4AA	4c	4f	4cc	4FF	Vb	4f 4A 4cc
=3	=3	=3	=3	=3	=3	=3
4BB-	8B-	4f	4dd	4BB-	I	4B- 4dd 4ff
.	8A	.	.	.	.	.
4C	4G	4en	4cc	4CC	V/V	4C 4e 4g
4D	4F	4f	4b-	4BB-	IVb/V	4b- 4D 4ff
4En	4c	[4c	8an	4CC	Vb/V	4c 4E 4g
.	.	.	8g	.	.	.
=4	=4	=4	=4	=4	=4	=4
4F	4c	8c]	4a	4FF	I/V	4F 4a 4cc
.	.	4f	.	.	.	.
4C	4B-	.	4g	4CC	V7/V	4C 4e 4g 4b-
.	.	8en	.	.	.	.
4FF;	4A;	4c;	4f;	4FF;	I/V;	4F; 4a; 4cc;
*>B1	*>B1	*>B1	*>B1	*>B1	*>B1	*>B1
4D	4B-	4f	4b-	4BB-	IVb/V	4b- 4D 4ff
=1	=1	=1	=1	=1	=1	=1
4E-	8B-	4g	4b-	4EE-	IV	4E- 4g 4b-
.	8c	.	.	.	.	.
4BB-	4d	4f	4b-	4BB-	I	4B- 4dd 4ff
=:|!	=:|!	=:|!	=:|!	=:|!	=:|!	=:|!
*>B2	*>B2	*>B2	*>B2	*>B2	*>B2	*>B2
4D	8d	8b-	4ff	8BB-	IVb/V	8b- 8D 8ff
.	8c	8a	.	8DD	iii7	8D 8f 8a 8cc
=5	=5	=5	=5	=5	=5	=5
4G	8B-	4g	4ee-	4EE-	IVb	4e- 4G 4b-
.	8c	.	.	.	.	.
4B-	8d	8f	4dd	4BB-	I	4B- 4dd 4ff
.	8e-	8g	.	.	.	.
4E-	4f	4a	4cc	4FF	V7d	4f 4a 4cc 4E-
4D	4f	8b-	4b-	4BB-	Vb/IV	4b- 4D 4ff
.	.	8a-	.	.	.	.
=6	=6	=6	=6	=6	=6	=6
4E-	2B-	4g	8b-	4EE-	IV	4E- 4g 4b-
.	.	.	8cc	.	.	.
4BB-	.	4f	4dd	4BB-	I	4B- 4dd 4ff
4F;	4A;	4f;	4cc;	4FF;	V;	4F; 4a; 4cc;
4D	4Bn	4f	4dd	4BB	viiob/ii	4b 4D 4ff
=7	=7	=7	=7	=7	=7	=7
4C	4.c	4e-	4ee-	4CC	ii	4C 4e- 4g
8F	.	8a-	4dd	8DD	viio7b/IV	8d 8F 8a- 8cc
8G	8Bn	[8g	.	8GG	V/ii	8G 8b 8dd
4A-	4c	8g]	4cc	4FF	vb	4f 4A- 4cc
.	.	8f	.	.	.	.
4G	4d	4g	4bn	4GG	V/ii	4G 4b 4dd
=8	=8	=8	=8	=8	=8	=8
2.C;	2.e-;	2.g;	2.cc;	2.CC;	ii;	2.C; 2.e-; 2.g;
4E-	4A	4c	4f	4FF	V7d	4f 4a 4cc 4E-
=9	=9	=9	=9	=9	=9	=9
4D	4B-	4f	4b-	4BB-	Ib	4b- 4D 4ff
4C	4E-	8g	4cc	4CC	ii	4C 4e- 4g
.	.	8a	.	.	.	.
4BB-	8F	4b-	4dd	4BB-	I	4B- 4dd 4ff
.	8f	.	.	.	.	.
4C	[4e-	8a	4ee-	4CC	-viiob/iii	4c 4E- 4g-
.	.	8g	.	.	.	.
=10	=10	=10	=10	=10	=10	=10
4D	8e-]	4f	4ff	4DD	iii	4D 4f 4a
.	8d	.	.	.	.	.
4E-	8c	4g	8ee-	8CC	iib	8c 8E- 8g
.	8B-	.	8dd	8EE-	IV7	8E- 8g 8b- 8dd
4F;	4f;	4a;	4cc;	4FF;	V;	4F; 4a; 4cc;
4G	4B-	4b-	4ee-	4EE-	IVb	4e- 4G 4b-
=11	=11	=11	=11	=11	=11	=11
4F	[4B-	4a-	4dd	4BB-	V7c/IV	4b- 4dd 4F 4aa-
2E-	8B-]	4g	4cc	4CC	iib	4c 4E- 4g
.	8c	.	.	.	.	.
.	4A	4f	4ff	4FF	V7d	4f 4a 4cc 4E-
8D	4B-	8f	8b-	8BB-	Ib	8b- 8D 8ff
8E-	.	8g	8cc	8CC	ii7b	8c 8E- 8g 8b-
=12	=12	=12	=12	=12	=12	=12
4F	4B-	8f	4dd	4BB-	Ic	4b- 4dd 4F
.	.	[8e-	.	.	.	.
4FF	4A	8e-]	4cc	4FF	V7	4F 4a 4cc 4ee-
.	.	8d	.	.	.	.
4BB-;	4F;	4d;	4b-;	4BB-;	I;	4B-; 4dd; 4ff;
==	==	==	==	==	==	==
*-	*-	*-	*-	*-	*-	*-
!!!ONB: m.10, b.4 changed from Ib to IVb
